X: 26536
T: Michael's Birthday
R: reel
M: 4/4
K: Emixolydian
|:eeed eBBA|BEED EAGF|EEEF D3E|FEDE FABd|
eeed eBBA|BEED EAGF|EEEF D3E|FEED EABd:|
|:eeeg aged|eeed BABc|d2 dcdf ed|BGEF DFBd|
eeeg aged|eeed B3c|dfed BA=GB|1 EEED E2Bd:|2 EEED E4||

